;FLAVOR:Marlin
;TIME:2811
;Filament used: 1.16024m
;Layer height: 0.1
;MINX:80.202
;MINY:93.703
;MINZ:0.3
;MAXX:139.798
;MAXY:131.297
;MAXZ:9
;Generated with Cura_SteamEngine 5.0.0
M140 S60
M105
M190 S60
M104 S210
M105
M109 S210
M82 ;absolute extrusion mode
; Ender 3 Custom Start G-code
G92 E0 ; Reset Extruder
G28 ; Home all axes
G1 Z2.0 F3000 ; Move Z Axis up little to prevent scratching of Heat Bed
G1 X0.1 Y20 Z0.3 F5000.0 ; Move to start position
G1 X0.1 Y200.0 Z0.3 F1500.0 E15 ; Draw the first line
G1 X0.4 Y200.0 Z0.3 F5000.0 ; Move to side a little
G1 X0.4 Y20 Z0.3 F1500.0 E30 ; Draw the second line
G92 E0 ; Reset Extruder
G1 Z2.0 F3000 ; Move Z Axis up little to prevent scratching of Heat Bed
G1 X5 Y20 Z0.3 F5000.0 ; Move over to prevent blob squish
G92 E0
G92 E0
G1 F2400 E-3
;LAYER_COUNT:88
;LAYER:0
M107
G0 F6000 X83.072 Y95.457 Z0.3
G0 X80.202 Y101.695
;TYPE:SKIRT
G1 F2400 E0
G1 F1200 X80.223 Y100.905 E0.03943
G1 X80.323 Y100.122 E0.07881
G1 X80.502 Y99.353 E0.1182
G1 X80.758 Y98.606 E0.1576
G1 X81.088 Y97.888 E0.19702
G1 X81.489 Y97.208 E0.2364
G1 X81.957 Y96.572 E0.2758
G1 X82.486 Y95.986 E0.31518
G1 X83.072 Y95.457 E0.35457
G1 X83.709 Y94.989 E0.39401
G1 X84.389 Y94.589 E0.43337
G1 X85.107 Y94.259 E0.47279
G1 X85.854 Y94.004 E0.51217
G1 X86.624 Y93.825 E0.55161
G1 X87.407 Y93.726 E0.59098
G1 X88 Y93.703 E0.62059
G1 X132 Y93.703 E2.81576
G1 X132.789 Y93.743 E2.85517
G1 X133.569 Y93.862 E2.89454
G1 X134.334 Y94.06 E2.93396
G1 X135.074 Y94.334 E2.97333
G1 X135.783 Y94.682 E3.01273
G1 X136.454 Y95.1 E3.05217
G1 X137.078 Y95.583 E3.09154
G1 X137.651 Y96.126 E3.13093
G1 X138.166 Y96.725 E3.17034
G1 X138.617 Y97.373 E3.20972
G1 X139.001 Y98.064 E3.24916
G1 X139.313 Y98.789 E3.28854
G1 X139.55 Y99.542 E3.32793
G1 X139.709 Y100.316 E3.36735
G1 X139.79 Y101.101 E3.40672
G1 X139.798 Y101.695 E3.43636
G1 X139.771 Y102.792 E3.4911
G1 X139.751 Y103.183 E3.51064
G1 X139.669 Y104.277 E3.56537
G1 X139.63 Y104.668 E3.58497
G1 X139.493 Y105.756 E3.63968
G1 X139.438 Y106.124 E3.65825
G1 X139.249 Y107.206 E3.71304
G1 X139.168 Y107.608 E3.7335
G1 X138.923 Y108.676 E3.78817
G1 X138.828 Y109.046 E3.80723
G1 X138.531 Y110.101 E3.86191
G1 X138.416 Y110.473 E3.88133
G1 X138.066 Y111.514 E3.93613
G1 X137.934 Y111.877 E3.9554
G1 X137.533 Y112.899 E4.01017
G1 X137.381 Y113.259 E4.02966
G1 X136.93 Y114.258 E4.08435
G1 X136.764 Y114.603 E4.10345
G1 X136.265 Y115.578 E4.15809
G1 X136.074 Y115.929 E4.17803
G1 X135.524 Y116.88 E4.23284
G1 X135.325 Y117.206 E4.25189
G1 X134.731 Y118.126 E4.30653
G1 X134.496 Y118.469 E4.32727
G1 X133.804 Y119.425 E4.38615
G1 X133.57 Y119.732 E4.40541
G1 X132.884 Y120.587 E4.4601
G1 X132.643 Y120.873 E4.47876
G1 X131.971 Y121.633 E4.52937
G1 X131.693 Y121.932 E4.54974
G1 X130.866 Y122.774 E4.60862
G1 X130.613 Y123.02 E4.62622
G1 X129.87 Y123.711 E4.67684
G1 X129.569 Y123.977 E4.69689
G1 X128.728 Y124.682 E4.75164
G1 X128.423 Y124.924 E4.77106
G1 X127.548 Y125.586 E4.8258
G1 X127.239 Y125.809 E4.84481
G1 X126.332 Y126.428 E4.8996
G1 X126 Y126.642 E4.9193
G1 X125.065 Y127.213 E4.97396
G1 X124.737 Y127.403 E4.99287
G1 X123.775 Y127.928 E5.04755
G1 X123.418 Y128.111 E5.06756
G1 X122.428 Y128.587 E5.12237
G1 X122.076 Y128.745 E5.14161
G1 X121.067 Y129.17 E5.19624
G1 X120.707 Y129.312 E5.21554
G1 X119.674 Y129.688 E5.27039
G1 X119.303 Y129.812 E5.2899
G1 X118.255 Y130.135 E5.34462
G1 X117.88 Y130.241 E5.36406
G1 X116.818 Y130.511 E5.41873
G1 X116.445 Y130.596 E5.43781
G1 X115.369 Y130.814 E5.49259
G1 X114.986 Y130.881 E5.51198
G1 X113.901 Y131.045 E5.56673
G1 X113.51 Y131.094 E5.58639
G1 X112.419 Y131.203 E5.64109
G1 X112.035 Y131.232 E5.6603
G1 X110.938 Y131.287 E5.7151
G1 X110.547 Y131.297 E5.73461
G1 X109.452 Y131.297 E5.78924
G1 X109.035 Y131.286 E5.81006
G1 X107.857 Y131.223 E5.86891
G1 X107.497 Y131.195 E5.88693
G1 X106.488 Y131.094 E5.93752
G1 X106.099 Y131.045 E5.95708
G1 X105.014 Y130.881 E6.01182
G1 X104.638 Y130.815 E6.03087
G1 X103.562 Y130.598 E6.08563
G1 X103.174 Y130.509 E6.10549
G1 X102.113 Y130.238 E6.16012
G1 X101.724 Y130.128 E6.18029
G1 X100.597 Y129.777 E6.23918
G1 X100.252 Y129.661 E6.25734
G1 X99.297 Y129.314 E6.30803
G1 X98.927 Y129.169 E6.32786
G1 X97.918 Y128.743 E6.3825
G1 X97.567 Y128.584 E6.40173
G1 X96.579 Y128.108 E6.45644
G1 X96.239 Y127.934 E6.4755
G1 X95.275 Y127.41 E6.53024
G1 X94.928 Y127.209 E6.55024
G1 X93.992 Y126.636 E6.60499
G1 X93.67 Y126.429 E6.62409
G1 X92.765 Y125.812 E6.67874
G1 X92.452 Y125.586 E6.698
G1 X91.576 Y124.923 E6.75281
G1 X91.269 Y124.679 E6.77237
G1 X90.429 Y123.974 E6.82708
G1 X90.137 Y123.717 E6.84649
G1 X89.332 Y122.97 E6.90128
G1 X89.052 Y122.696 E6.92083
G1 X88.287 Y121.911 E6.97551
G1 X88.027 Y121.631 E6.99457
G1 X87.3 Y120.808 E7.04936
G1 X87.046 Y120.505 E7.06908
G1 X86.363 Y119.648 E7.12376
G1 X86.129 Y119.339 E7.1431
G1 X85.488 Y118.447 E7.1979
G1 X85.255 Y118.103 E7.21862
G1 X84.62 Y117.112 E7.27735
G1 X84.432 Y116.804 E7.29535
G1 X83.924 Y115.924 E7.34604
G1 X83.738 Y115.583 E7.36542
G1 X83.238 Y114.608 E7.42009
G1 X83.069 Y114.256 E7.43957
G1 X82.618 Y113.256 E7.4943
G1 X82.469 Y112.903 E7.51341
G1 X82.068 Y111.883 E7.56809
G1 X81.934 Y111.515 E7.58763
G1 X81.584 Y110.474 E7.64242
G1 X81.468 Y110.1 E7.66196
G1 X81.171 Y109.044 E7.71669
G1 X81.076 Y108.669 E7.73599
G1 X80.832 Y107.601 E7.79064
G1 X80.754 Y107.213 E7.81039
G1 X80.564 Y106.131 E7.86519
G1 X80.507 Y105.756 E7.88412
G1 X80.37 Y104.667 E7.93888
G1 X80.331 Y104.277 E7.95843
G1 X80.249 Y103.185 E8.01306
G1 X80.229 Y102.793 E8.03265
G1 X80.202 Y101.695 E8.08744
G0 F6000 X80.602 Y101.685
G1 F1200 X80.623 Y100.916 E8.12582
G1 X80.724 Y100.154 E8.16417
G1 X80.903 Y99.406 E8.20254
G1 X81.16 Y98.68 E8.24097
G1 X81.489 Y97.985 E8.27933
G1 X81.89 Y97.329 E8.31769
G1 X82.356 Y96.717 E8.35606
G1 X82.883 Y96.157 E8.39443
G1 X83.466 Y95.655 E8.43281
G1 X84.097 Y95.216 E8.47116
G1 X84.771 Y94.845 E8.50954
G1 X85.48 Y94.545 E8.54795
G1 X86.215 Y94.321 E8.58629
G1 X86.971 Y94.175 E8.6247
G1 X88 Y94.103 E8.67616
G1 X132 Y94.103 E10.87133
G1 X132.768 Y94.143 E10.9097
G1 X133.528 Y94.262 E10.94808
G1 X134.271 Y94.46 E10.98644
G1 X134.99 Y94.734 E11.02483
G1 X135.676 Y95.081 E11.06318
G1 X136.323 Y95.497 E11.10156
G1 X136.923 Y95.978 E11.13992
G1 X137.47 Y96.519 E11.17831
G1 X137.958 Y97.114 E11.2167
G1 X138.381 Y97.756 E11.25505
G1 X138.736 Y98.439 E11.29346
G1 X139.017 Y99.154 E11.33178
G1 X139.223 Y99.896 E11.3702
G1 X139.351 Y100.654 E11.40856
G1 X139.398 Y101.685 E11.46005
G1 X139.371 Y102.782 E11.51479
G1 X139.352 Y103.153 E11.53332
G1 X139.27 Y104.247 E11.58806
G1 X139.233 Y104.619 E11.60671
G1 X139.096 Y105.707 E11.66142
G1 X139.044 Y106.055 E11.67897
G1 X138.855 Y107.137 E11.73377
G1 X138.778 Y107.519 E11.75321
G1 X138.533 Y108.587 E11.80788
G1 X138.443 Y108.937 E11.82591
G1 X138.146 Y109.992 E11.88059
G1 X138.037 Y110.345 E11.89902
G1 X137.687 Y111.386 E11.95381
G1 X137.562 Y111.731 E11.97212
G1 X137.161 Y112.753 E12.02689
G1 X137.017 Y113.095 E12.04541
G1 X136.566 Y114.094 E12.10009
G1 X136.408 Y114.42 E12.11816
G1 X135.909 Y115.395 E12.17281
G1 X135.728 Y115.729 E12.19176
G1 X135.178 Y116.68 E12.24657
G1 X134.989 Y116.989 E12.26464
G1 X134.395 Y117.909 E12.31927
G1 X134.172 Y118.234 E12.33894
G1 X133.48 Y119.19 E12.39782
G1 X133.258 Y119.482 E12.41612
G1 X132.572 Y120.337 E12.47081
G1 X132.344 Y120.608 E12.48847
G1 X131.672 Y121.368 E12.53909
G1 X131.407 Y121.651 E12.55843
G1 X130.341 Y122.727 E12.634
G1 X129.598 Y123.418 E12.68462
G1 X129.312 Y123.67 E12.70363
G1 X128.471 Y124.375 E12.75838
G1 X128.182 Y124.605 E12.77681
G1 X127.307 Y125.267 E12.83155
G1 X127.013 Y125.478 E12.84961
G1 X126.106 Y126.097 E12.90439
G1 X125.792 Y126.3 E12.92304
G1 X124.857 Y126.871 E12.9777
G1 X124.545 Y127.052 E12.9957
G1 X123.583 Y127.577 E13.05037
G1 X123.245 Y127.75 E13.06932
G1 X122.255 Y128.226 E13.12412
G1 X121.921 Y128.377 E13.14241
G1 X120.912 Y128.802 E13.19703
G1 X120.57 Y128.936 E13.21536
G1 X119.537 Y129.312 E13.2702
G1 X119.186 Y129.43 E13.28868
G1 X118.138 Y129.753 E13.34339
G1 X117.781 Y129.853 E13.36188
G1 X116.719 Y130.123 E13.41655
G1 X116.365 Y130.204 E13.43467
G1 X115.289 Y130.422 E13.48944
G1 X114.926 Y130.486 E13.50783
G1 X113.841 Y130.65 E13.56258
G1 X113.471 Y130.696 E13.58118
G1 X112.38 Y130.805 E13.63588
G1 X112.015 Y130.833 E13.65414
G1 X110.918 Y130.888 E13.70894
G1 X110.547 Y130.897 E13.72746
G1 X109.452 Y130.897 E13.78209
G1 X109.057 Y130.886 E13.8018
G1 X107.879 Y130.823 E13.86066
G1 X107.537 Y130.797 E13.87777
G1 X106.528 Y130.696 E13.92836
G1 X106.159 Y130.65 E13.94691
G1 X105.074 Y130.486 E14.00166
G1 X104.717 Y130.423 E14.01974
G1 X103.641 Y130.206 E14.0745
G1 X103.273 Y130.122 E14.09334
G1 X102.212 Y129.851 E14.14797
G1 X101.843 Y129.746 E14.16711
G1 X100.716 Y129.395 E14.226
G1 X100.389 Y129.285 E14.24321
G1 X99.434 Y128.938 E14.2939
G1 X99.083 Y128.8 E14.31272
G1 X98.074 Y128.374 E14.36736
G1 X97.74 Y128.224 E14.38563
G1 X96.752 Y127.748 E14.44034
G1 X96.43 Y127.583 E14.45839
G1 X95.466 Y127.059 E14.51313
G1 X95.136 Y126.868 E14.53216
G1 X94.2 Y126.295 E14.58691
G1 X93.896 Y126.098 E14.60498
G1 X92.991 Y125.481 E14.65963
G1 X92.693 Y125.268 E14.6779
G1 X91.817 Y124.605 E14.73271
G1 X91.526 Y124.372 E14.75131
G1 X90.686 Y123.667 E14.80602
G1 X90.409 Y123.423 E14.82444
G1 X89.604 Y122.676 E14.87923
G1 X89.338 Y122.417 E14.89775
G1 X88.573 Y121.632 E14.95244
G1 X88.327 Y121.366 E14.97051
G1 X87.6 Y120.543 E15.0253
G1 X87.359 Y120.256 E15.04399
G1 X86.676 Y119.399 E15.09867
G1 X86.454 Y119.105 E15.11705
G1 X85.813 Y118.213 E15.17185
G1 X85.591 Y117.887 E15.19153
G1 X84.956 Y116.896 E15.25025
G1 X84.778 Y116.604 E15.26731
G1 X84.27 Y115.724 E15.318
G1 X84.094 Y115.401 E15.33635
G1 X83.594 Y114.426 E15.39102
G1 X83.433 Y114.091 E15.40956
G1 X82.982 Y113.091 E15.46429
G1 X82.841 Y112.756 E15.48242
G1 X82.44 Y111.736 E15.5371
G1 X82.313 Y111.387 E15.55563
G1 X81.963 Y110.346 E15.61042
G1 X81.853 Y109.992 E15.62892
G1 X81.556 Y108.936 E15.68365
G1 X81.466 Y108.58 E15.70197
G1 X81.222 Y107.512 E15.75662
G1 X81.148 Y107.144 E15.77535
G1 X80.958 Y106.062 E15.83016
G1 X80.904 Y105.706 E15.84812
G1 X80.767 Y104.617 E15.90288
G1 X80.73 Y104.247 E15.92143
G1 X80.648 Y103.155 E15.97606
G1 X80.629 Y102.783 E15.99465
G1 X80.602 Y101.685 E16.04944
G0 F6000 X81.002 Y101.675
G1 F1200 X81.024 Y100.927 E16.08678
G1 X81.125 Y100.186 E16.12409
G1 X81.305 Y99.46 E16.1614
G1 X81.561 Y98.757 E16.19873
G1 X81.891 Y98.086 E16.23604
G1 X82.29 Y97.453 E16.27337
G1 X82.755 Y96.867 E16.31069
G1 X83.28 Y96.334 E16.34801
G1 X83.858 Y95.86 E16.38531
G1 X84.484 Y95.45 E16.42264
G1 X85.15 Y95.109 E16.45997
G1 X85.849 Y94.842 E16.4973
G1 X86.572 Y94.65 E16.53462
G1 X87.311 Y94.537 E16.57192
G1 X88 Y94.503 E16.60633
G1 X132 Y94.503 E18.8015
G1 X132.747 Y94.543 E18.83882
G1 X133.485 Y94.662 E18.87612
G1 X134.207 Y94.86 E18.91347
G1 X134.903 Y95.133 E18.95077
G1 X135.566 Y95.48 E18.9881
G1 X136.189 Y95.895 E19.02545
G1 X136.763 Y96.374 E19.06275
G1 X137.284 Y96.911 E19.10008
G1 X137.743 Y97.501 E19.13737
G1 X138.138 Y98.137 E19.17472
G1 X138.462 Y98.811 E19.21203
G1 X138.712 Y99.516 E19.24935
G1 X138.886 Y100.244 E19.28669
G1 X138.981 Y100.986 E19.32401
G1 X138.998 Y101.675 E19.3584
G1 X138.971 Y102.772 E19.41314
G1 X138.953 Y103.123 E19.43068
G1 X138.871 Y104.217 E19.48541
G1 X138.836 Y104.569 E19.50306
G1 X138.699 Y105.657 E19.55777
G1 X138.65 Y105.986 E19.57436
G1 X138.461 Y107.068 E19.62916
G1 X138.388 Y107.429 E19.64754
G1 X138.143 Y108.497 E19.7022
G1 X138.058 Y108.829 E19.7193
G1 X137.761 Y109.884 E19.77398
G1 X137.658 Y110.218 E19.79142
G1 X137.308 Y111.259 E19.84621
G1 X137.189 Y111.585 E19.86353
G1 X136.788 Y112.607 E19.9183
G1 X136.652 Y112.93 E19.93578
G1 X136.201 Y113.929 E19.99047
G1 X136.052 Y114.238 E20.00758
G1 X135.553 Y115.213 E20.06222
G1 X135.382 Y115.528 E20.08011
G1 X134.832 Y116.479 E20.13492
G1 X134.653 Y116.772 E20.15204
G1 X134.059 Y117.692 E20.20668
G1 X133.848 Y117.999 E20.22526
G1 X133.156 Y118.955 E20.28414
G1 X132.946 Y119.232 E20.30149
G1 X132.26 Y120.087 E20.35617
G1 X132.044 Y120.343 E20.37289
G1 X131.372 Y121.103 E20.4235
G1 X131.122 Y121.371 E20.44178
G1 X130.295 Y122.213 E20.50066
G1 X130.068 Y122.434 E20.51647
G1 X129.325 Y123.125 E20.56709
G1 X129.055 Y123.363 E20.58505
G1 X128.214 Y124.068 E20.6398
G1 X127.94 Y124.286 E20.65727
G1 X127.065 Y124.948 E20.71201
G1 X126.788 Y125.148 E20.72905
G1 X125.881 Y125.767 E20.78384
G1 X125.583 Y125.959 E20.80152
G1 X124.648 Y126.53 E20.85618
G1 X124.353 Y126.701 E20.87319
G1 X123.391 Y127.226 E20.92787
G1 X123.071 Y127.39 E20.94581
G1 X122.081 Y127.866 E21.00061
G1 X121.765 Y128.008 E21.01789
G1 X120.756 Y128.433 E21.07252
G1 X120.433 Y128.56 E21.08983
G1 X119.4 Y128.936 E21.14468
G1 X119.068 Y129.047 E21.16214
G1 X118.02 Y129.37 E21.21685
G1 X117.683 Y129.465 E21.23432
G1 X116.621 Y129.735 E21.28899
G1 X116.286 Y129.812 E21.30614
G1 X115.21 Y130.03 E21.36091
G1 X114.866 Y130.09 E21.37833
G1 X113.781 Y130.254 E21.43308
G1 X113.431 Y130.298 E21.45068
G1 X112.34 Y130.407 E21.50538
G1 X111.995 Y130.433 E21.52264
G1 X110.898 Y130.488 E21.57744
G1 X110.547 Y130.497 E21.59496
G1 X109.452 Y130.497 E21.64959
G1 X109.078 Y130.487 E21.66825
G1 X107.9 Y130.424 E21.72711
G1 X107.577 Y130.399 E21.74327
G1 X106.568 Y130.298 E21.79386
G1 X106.219 Y130.254 E21.81141
G1 X105.134 Y130.09 E21.86615
G1 X104.796 Y130.031 E21.88327
G1 X103.72 Y129.814 E21.93804
G1 X103.372 Y129.734 E21.95585
G1 X102.311 Y129.463 E22.01048
G1 X101.961 Y129.364 E22.02863
G1 X100.834 Y129.013 E22.08752
G1 X100.525 Y128.909 E22.10379
G1 X99.57 Y128.562 E22.15448
G1 X99.238 Y128.432 E22.17227
G1 X98.229 Y128.006 E22.22691
G1 X97.914 Y127.863 E22.24417
G1 X96.926 Y127.387 E22.29888
G1 X96.621 Y127.231 E22.31597
G1 X95.657 Y126.707 E22.37071
G1 X95.345 Y126.527 E22.38868
G1 X94.409 Y125.954 E22.44344
G1 X94.121 Y125.768 E22.46054
G1 X93.216 Y125.151 E22.51519
G1 X92.935 Y124.949 E22.53245
G1 X92.059 Y124.286 E22.58726
G1 X91.783 Y124.066 E22.60487
G1 X90.943 Y123.361 E22.65958
G1 X90.682 Y123.13 E22.67697
G1 X89.877 Y122.383 E22.73176
G1 X89.625 Y122.137 E22.74933
G1 X88.86 Y121.352 E22.80401
G1 X88.627 Y121.101 E22.8211
G1 X87.9 Y120.278 E22.87589
G1 X87.672 Y120.007 E22.89355
G1 X86.989 Y119.15 E22.94823
G1 X86.779 Y118.872 E22.96561
G1 X86.138 Y117.98 E23.02041
G1 X85.928 Y117.672 E23.03901
G1 X85.293 Y116.681 E23.09773
G1 X85.125 Y116.404 E23.11389
G1 X84.617 Y115.524 E23.16459
G1 X84.45 Y115.218 E23.18198
G1 X83.95 Y114.243 E23.23664
G1 X83.798 Y113.927 E23.25414
G1 X83.347 Y112.927 E23.30887
G1 X83.213 Y112.61 E23.32604
G1 X82.812 Y111.59 E23.38072
G1 X82.692 Y111.26 E23.39823
G1 X82.342 Y110.219 E23.45303
G1 X82.238 Y109.883 E23.47058
G1 X81.941 Y108.827 E23.5253
G1 X81.856 Y108.491 E23.54259
G1 X81.612 Y107.423 E23.59725
G1 X81.541 Y107.075 E23.61497
G1 X81.351 Y105.993 E23.66978
G1 X81.301 Y105.656 E23.68677
G1 X81.164 Y104.567 E23.74153
G1 X81.129 Y104.217 E23.75908
G1 X81.047 Y103.125 E23.81371
G1 X81.029 Y102.773 E23.8313
G1 X81.002 Y101.675 E23.88609
G0 F6000 X81.402 Y101.665
G1 F1200 X81.424 Y100.939 E23.92233
G1 X81.526 Y100.22 E23.95856
G1 X81.706 Y99.516 E23.99481
G1 X81.963 Y98.837 E24.03104
G1 X82.292 Y98.189 E24.06729
G1 X82.691 Y97.582 E24.10353
G1 X83.154 Y97.023 E24.13974
G1 X83.675 Y96.517 E24.17598
G1 X84.249 Y96.072 E24.21221
G1 X84.869 Y95.693 E24.24847
G1 X85.526 Y95.384 E24.28469
G1 X86.214 Y95.149 E24.32096
G1 X86.923 Y94.992 E24.35719
G1 X88 Y94.903 E24.4111
G1 X132 Y94.903 E26.60627
G1 X132.725 Y94.943 E26.6425
G1 X133.442 Y95.062 E26.67876
G1 X134.141 Y95.26 E26.71501
G1 X134.814 Y95.533 E26.75124
G1 X135.453 Y95.878 E26.78747
G1 X136.05 Y96.292 E26.82371
G1 X136.598 Y96.768 E26.85993
G1 X137.091 Y97.302 E26.89619
G1 X137.521 Y97.887 E26.93241
G1 X137.885 Y98.516 E26.96866
G1 X138.178 Y99.181 E27.00492
G1 X138.396 Y99.874 E27.04116
G1 X138.536 Y100.586 E27.07737
G1 X138.598 Y101.665 E27.13129
G1 X138.571 Y102.762 E27.18603
G1 X138.555 Y103.093 E27.20256
G1 X138.473 Y104.187 E27.2573
G1 X138.439 Y104.519 E27.27395
G1 X138.302 Y105.607 E27.32866
G1 X138.256 Y105.918 E27.34434
G1 X138.067 Y107 E27.39914
